communes/4421.svg

<?xml version="1.0" encoding="UTF-8" standalone="no"?>
<!-- Created with Inkscape (http://www.inkscape.org/) -->
<svg
   xmlns:dc="http://purl.org/dc/elements/1.1/"
   xmlns:cc="http://creativecommons.org/ns#"
   xmlns:rdf="http://www.w3.org/1999/02/22-rdf-syntax-ns#"
   xmlns:svg="http://www.w3.org/2000/svg"
   xmlns="http://www.w3.org/2000/svg"
   xmlns:sodipodi="http://sodipodi.sourceforge.net/DTD/sodipodi-0.dtd"
   xmlns:inkscape="http://www.inkscape.org/namespaces/inkscape"
   version="1.0"
   width="514.88043"
   height="632.91663"
   id="svg3090"
   sodipodi:version="0.32"
   inkscape:version="0.46"
   sodipodi:docname="Wappen_Wabern.svg"
   inkscape:output_extension="org.inkscape.output.svg.inkscape">
  <metadata
     id="metadata40">
    <rdf:RDF>
      <cc:Work
         rdf:about="">
        <dc:format>image/svg+xml</dc:format>
        <dc:type
           rdf:resource="http://purl.org/dc/dcmitype/StillImage" />
      </cc:Work>
    </rdf:RDF>
  </metadata>
  <sodipodi:namedview
     inkscape:window-height="850"
     inkscape:window-width="1440"
     inkscape:pageshadow="2"
     inkscape:pageopacity="0.0"
     guidetolerance="10.0"
     gridtolerance="10.0"
     objecttolerance="10.0"
     borderopacity="1.0"
     bordercolor="#666666"
     pagecolor="#ffffff"
     id="base"
     showgrid="false"
     inkscape:zoom="0.19597236"
     inkscape:cx="2868.933"
     inkscape:cy="861.84333"
     inkscape:window-x="-8"
     inkscape:window-y="-8"
     inkscape:current-layer="svg3090" />
  <defs
     id="defs3092">
    <inkscape:perspective
       sodipodi:type="inkscape:persp3d"
       inkscape:vp_x="0 : 312.62735 : 1"
       inkscape:vp_y="0 : 1000 : 0"
       inkscape:vp_z="556.77936 : 312.62735 : 1"
       inkscape:persp3d-origin="278.38968 : 208.41823 : 1"
       id="perspective42" />
    <clipPath
       id="clipPath3255">
      <path
         d="M 0.029999,841.95 L 595.29,841.95 L 595.29,0.03 L 0.029999,0.03 L 0.029999,841.95 z"
         id="path3257" />
    </clipPath>
    <clipPath
       id="clipPath3249">
      <path
         d="M -0.138,841.445 L 595.138,841.445 L 595.138,-0.445 L -0.138,-0.445 L -0.138,841.445 z"
         id="path3251" />
    </clipPath>
    <clipPath
       id="clipPath307">
      <path
         d="M 9.827,586.634 L 68.413,586.634 L 68.413,556.931 L 9.827,556.931 L 9.827,586.634 z"
         id="path309" />
    </clipPath>
    <clipPath
       id="clipPath313">
      <path
         d="M -0.42902,595.138 L 1133.429,595.138 L 1133.429,-0.138 L -0.42902,-0.138 L -0.42902,595.138 z"
         id="path315" />
    </clipPath>
    <clipPath
       id="clipPath319">
      <path
         d="M 0.015015,595.29 L 1133.865,595.29 L 1133.865,0 L 0.015015,0 L 0.015015,595.29 z"
         id="path321" />
    </clipPath>
    <clipPath
       id="clipPath327">
      <path
         d="M 0.015,0 L 1133.8651,0 L 1133.8651,595.28998 L 0.015,595.28998 L 0.015,0 z"
         id="path329" />
    </clipPath>
    <clipPath
       id="clipPath335">
      <path
         d="M 9.827,586.634 L 68.413,586.634 L 68.413,556.931 L 9.827,556.931 L 9.827,586.634 z"
         id="path337" />
    </clipPath>
    <clipPath
       id="clipPath341">
      <path
         d="M -0.42902,595.138 L 1133.429,595.138 L 1133.429,-0.138 L -0.42902,-0.138 L -0.42902,595.138 z"
         id="path343" />
    </clipPath>
    <clipPath
       id="clipPath347">
      <path
         d="M 0.015015,595.29 L 1133.865,595.29 L 1133.865,0 L 0.015015,0 L 0.015015,595.29 z"
         id="path349" />
    </clipPath>
    <clipPath
       id="clipPath357">
      <path
         d="M -0.313,-19.242001 L 34.199001,-19.242001 L 34.199001,1.325 L -0.313,1.325 L -0.313,-19.242001 z"
         id="path359" />
    </clipPath>
    <clipPath
       id="clipPath365">
      <path
         d="M 0,1 L 0,-0.32464 L 1,-0.32464 L 1,1"
         id="path367" />
    </clipPath>
    <clipPath
       id="clipPath371">
      <path
         d="M -0.014731,1.0262 L 1.768569,1.0262 L 1.768569,0 L -0.014731,0 L -0.014731,1.0262 z"
         id="path373" />
    </clipPath>
    <clipPath
       id="clipPath377">
      <path
         d="M -0.32691,1.32 L 34.18609,1.32 L 34.18609,-19.247 L -0.32691,-19.247 L -0.32691,1.32 z"
         id="path379" />
    </clipPath>
    <clipPath
       id="clipPath383">
      <path
         d="M -0.31339,1.3253 L 34.19961,1.3253 L 34.19961,-19.2417 L -0.31339,-19.2417 L -0.31339,1.3253 z"
         id="path385" />
    </clipPath>
    <inkscape:perspective
       id="perspective2479"
       inkscape:persp3d-origin="372.04724 : 350.78739 : 1"
       inkscape:vp_z="744.09448 : 526.18109 : 1"
       inkscape:vp_y="0 : 1000 : 0"
       inkscape:vp_x="0 : 526.18109 : 1"
       sodipodi:type="inkscape:persp3d" />
    <inkscape:perspective
       id="perspective2546"
       inkscape:persp3d-origin="372.04724 : 350.78739 : 1"
       inkscape:vp_z="744.09448 : 526.18109 : 1"
       inkscape:vp_y="0 : 1000 : 0"
       inkscape:vp_x="0 : 526.18109 : 1"
       sodipodi:type="inkscape:persp3d" />
    <clipPath
       id="clipPath5029">
      <path
         id="path5031"
         d="M 413.4,256.025 L 469.307,256.025 L 469.307,199.342 L 413.4,199.342 L 413.4,256.025 z" />
    </clipPath>
    <clipPath
       id="clipPath5035">
      <path
         id="path5037"
         d="M 0,842 L 595.276,842 L 595.276,0.11 L 0,0.11 L 0,842 z" />
    </clipPath>
    <clipPath
       id="clipPath5041">
      <path
         id="path5043"
         d="M 0.029999,841.98 L 595.05,841.98 L 595.05,0 L 0.029999,0 L 0.029999,841.98 z" />
    </clipPath>
    <inkscape:perspective
       id="perspective18"
       inkscape:persp3d-origin="251.45 : 218.10954 : 1"
       inkscape:vp_z="502.89999 : 327.16431 : 1"
       inkscape:vp_y="0 : 1000 : 0"
       inkscape:vp_x="0 : 327.16431 : 1"
       sodipodi:type="inkscape:persp3d" />
    <inkscape:perspective
       id="perspective8672"
       inkscape:persp3d-origin="372.04724 : 350.78739 : 1"
       inkscape:vp_z="744.09448 : 526.18109 : 1"
       inkscape:vp_y="0 : 1000 : 0"
       inkscape:vp_x="0 : 526.18109 : 1"
       sodipodi:type="inkscape:persp3d" />
  </defs>
  <path
     style="opacity:0.98989898;fill:#ffffff;fill-opacity:1;fill-rule:nonzero;stroke:none;stroke-width:3.18474698;stroke-linecap:round;stroke-linejoin:miter;stroke-miterlimit:4;stroke-dasharray:none;stroke-opacity:1"
     d="M 232.25163,629.1745 C 85.339828,603.2527 27.032498,515.162 6.5019483,428.3183 L 8.0613883,8.0631 L 507.00203,8.0631 L 507.76483,433.5113 C 497.51593,491.7035 456.11093,546.9823 410.27943,582.1221 C 366.03613,606.7772 314.87843,638.5656 232.25163,629.1745 z"
     id="path2804"
     sodipodi:nodetypes="ccccccc" />
  <path
     style="fill:#231f20;fill-opacity:1;fill-rule:evenodd;stroke:none"
     id="path5047"
     d="M 10.277658,9.4725 L 504.58893,9.4725 L 504.58893,395.5923 C 504.92813,455.3852 478.14633,514.7221 432.14383,556.6645 C 386.49463,599.2062 322.13363,623.5976 257.43333,623.4413 C 192.57763,623.5976 128.21653,599.2062 82.722728,556.6645 C 36.564798,514.7221 9.9384683,455.3852 10.277658,395.5923 L 10.277658,9.4725 z M 0.0030682921,0 L 514.87763,0 L 514.87763,395.5923 C 515.20263,457.8739 487.40333,519.6994 439.39393,563.492 C 391.87933,607.5973 324.83293,633.2265 257.43333,632.9138 C 189.87823,633.2265 122.81773,607.5973 75.317128,563.492 C 27.463228,519.6994 -0.33612171,457.8739 0.0030682921,395.5923 L 0.0030682921,0" />
  <path
     style="fill:#d8201f;fill-opacity:1;fill-rule:evenodd;stroke:#000000;stroke-width:1.32471657px;stroke-linecap:butt;stroke-linejoin:miter;stroke-opacity:1"
     d="M 218.63813,328.7507 C 206.20473,386.7113 260.42423,392.142 278.14963,344.1416 C 269.80673,292.0813 236.80443,289.3399 196.06473,302.0732 C 158.89563,323.5819 151.26013,350.013 152.97023,378.0016 C 159.68273,427.8779 192.22743,460.5868 250.44593,464.8233 C 300.69243,463.2608 347.54873,441.1096 372.05803,377.656 C 391.56213,317.4021 372.81153,272.8425 341.76533,233.3272 C 247.62843,114.0985 108.59893,200.7616 65.755108,240.5096 L 31.895108,112.2521 C 59.423198,76.3288 91.493028,46.2247 160.15263,63.0012 C 194.53703,21.5743 243.62953,8.1084 296.71433,49.0298 C 328.70093,43.07 401.25413,20.5701 408.45923,126.6169 C 420.71773,135.2949 502.16693,130.7571 462.88833,242.0726 C 491.10563,267.0589 519.34793,301.3302 463.91433,360.0695 C 494.66833,414.2314 476.15873,445.0139 430.10213,462.7233 C 424.80573,530.2044 388.61133,539.7519 341.81313,529.4172 C 317.59133,578.0713 280.85743,577.5116 237.10713,549.3537 C 208.38113,556.3373 167.91623,582.5121 142.61403,506.8439 C 101.01223,503.635 66.852018,491.5326 78.067828,425.2004 C 60.358818,417.381 21.036118,402.8292 65.755108,345.1677 C 59.508888,317.1244 52.056458,288.7292 106.79753,278.4738 C 117.83713,246.4074 140.47733,232.902 177.59573,242.5617 C 212.07633,204.9385 234.54153,224.7223 257.62843,241.5356 C 317.45163,237.1172 303.66633,271.6204 307.36833,289.08 C 345.67143,305.0957 332.31023,329.2042 317.13983,350.298 C 326.93313,386.1314 317.27213,403.1186 285.33203,398.5228 C 253.80033,443.0526 236.72473,417.9515 225.82053,399.5489 C 203.34203,406.1758 159.73973,391.0158 218.63813,328.7507 z"
     id="path2640"
     sodipodi:nodetypes="cccccccccccccccccccccccccccc" />
</svg>

<?xml version="1.0" encoding="UTF-8"?>
<svg version="1.0" viewBox="0 0 514.88 632.92" xmlns="http://www.w3.org/2000/svg" xmlns:cc="http://creativecommons.org/ns#" xmlns:dc="http://purl.org/dc/elements/1.1/" xmlns:rdf="http://www.w3.org/1999/02/22-rdf-syntax-ns#">
<metadata>
<rdf:RDF>
<cc:Work rdf:about="">
<dc:format>image/svg+xml</dc:format>
<dc:type rdf:resource="http://purl.org/dc/dcmitype/StillImage"/>
</cc:Work>
</rdf:RDF>
</metadata>
<path d="m232.25 629.17c-146.91-25.922-205.22-114.01-225.75-200.86l1.5594-420.26h498.94l0.7628 425.45c-10.249 58.192-51.654 113.47-97.485 148.61-44.243 24.655-95.401 56.444-178.03 47.052z" fill="#fff" opacity=".9899"/>
<path d="m10.278 9.4725h494.31v386.12c0.3392 59.793-26.443 119.13-72.445 161.07-45.649 42.542-110.01 66.933-174.71 66.777-64.856 0.1563-129.22-24.235-174.71-66.777-46.158-41.942-72.784-101.28-72.445-161.07v-386.12zm-10.275-9.4725h514.87v395.59c0.325 62.282-27.474 124.11-75.484 167.9-47.515 44.105-114.56 69.734-181.96 69.422-67.555 0.3127-134.62-25.316-182.12-69.422-47.854-43.793-75.653-105.62-75.314-167.9v-395.59" fill="#231f20" fill-rule="evenodd"/>
<path d="m218.64 328.75c-12.433 57.961 41.786 63.391 59.512 15.391-8.3429-52.06-41.345-54.802-82.085-42.068-37.169 21.509-44.805 47.94-43.094 75.928 6.7125 49.876 39.257 82.585 97.476 86.822 50.246-1.5625 97.103-23.714 121.61-87.167 19.504-60.254 0.7535-104.81-30.293-144.33-94.137-119.23-233.17-32.566-276.01 7.1824l-33.86-128.26c27.528-35.923 59.598-66.027 128.26-49.251 34.384-41.427 83.477-54.893 136.56-13.971 31.987-5.9598 104.54-28.46 111.74 77.587 12.258 8.678 93.708 4.1402 54.429 115.46 28.217 24.986 56.46 59.258 1.026 118 30.754 54.162 12.244 84.944-33.812 102.65-5.2964 67.481-41.491 77.029-88.289 66.694-24.222 48.654-60.956 48.094-104.71 19.936-28.726 6.9836-69.191 33.158-94.493-42.51-41.602-3.2089-75.762-15.311-64.546-81.644-17.709-7.8194-57.032-22.371-12.313-80.033-6.2462-28.043-13.699-56.438 41.042-66.694 11.04-32.066 33.68-45.572 70.798-35.912 34.481-37.623 56.946-17.839 80.033-1.0261 59.823-4.4184 46.038 30.085 49.74 47.544 38.303 16.016 24.942 40.124 9.7715 61.218 9.7933 35.833 0.1323 52.821-31.808 48.225-31.532 44.53-48.607 19.429-59.512 1.0261-22.478 6.6269-66.081-8.5331-7.1824-70.798z" fill="#d8201f" fill-rule="evenodd" stroke="#000" stroke-width="1.3247px"/>
</svg>
